material/.icons/material/view-dashboard.svg

<svg xmlns="http://www.w3.org/2000/svg" viewBox="0 0 24 24"><path d="M13 3v6h8V3m-8 18h8V11h-8M3 21h8v-6H3m0-2h8V3H3v10z"/></svg>

<?xml version="1.0" encoding="UTF-8"?><!DOCTYPE svg PUBLIC "-//W3C//DTD SVG 1.1//EN" "http://www.w3.org/Graphics/SVG/1.1/DTD/svg11.dtd"><svg xmlns="http://www.w3.org/2000/svg" xmlns:xlink="http://www.w3.org/1999/xlink" version="1.1" id="mdi-view-dashboard" width="24" height="24" viewBox="0 0 24 24"><path d="M13,3V9H21V3M13,21H21V11H13M3,21H11V15H3M3,13H11V3H3V13Z" /></svg>
